!!!ONB: MCCC : IJH0463_04 : Extracted Monophonic Melody
!!!COM: Haydn, Joseph
!!!OPR: String Quartet in G major
!!!OMV: 4
!!!SCT: Hob.III:58 ; Op.54 No.1
!!!ODT: 1788///
**kern
*thru
*k[f#]
*G:
*clefG
*M2/4
8b
8b
=1
4.b
8dd
=2
8cc
8a
8f#
16e
16d
=3
8g
8g
8g
16f#
16g
=4
8a
8r
8cc
8cc
=5
4.cc
8dd
=6
8b
16a
16g
8gg
8gg
=7
8ee
16dd#
16ee
8cc#
16b
16cc#
=8
4dd
8dd
8dd
=9
4.dd
8ff#
=10
8gg
8bb
8dd
16cc
16b
=11
8cc
8cc
8b
16a
16g
=12
8a
8a
4r
=13
8gg
8gg
8aa
16gg
16aa
=14
8ff#
8ff#
8gg
16ff#
16gg
=15
8ee
8ee
8dd
16cc#
16dd
=16
4cc#
8cc
8cc
=17
8cc
4.r
=18
4r
8b
8b
=19
4.b
8dd
=20
8cc
8a
8f#
16e
16d
=21
8g
8g
8g
16f#
16g
=22
8a
8r
8cc
8cc
=23
4.cc
8dd
=24
8b
16a
16g
8ee
8ee
=25
8dd
16cc
16b
8a
16g
16f#
=26
4g
8dd
8dd
=27
4dd
16ff#
16gg
16bb-
16gg
=28
8ff#
8aa
8cc
8cc
=29
4cc
8ee-
16dd
16cc
=30
8b-
8g
8dd
8dd
=31
4dd
8ee-
8ee
=32
8ff
8ee-
8dd
8b-
=33
16cc
16dd
16ee-
16cc
16a
16f
16e-
16c
=34
16B-
16c
16d
16e-
16f
16g
16a
16b-
=35
16cc
16dd
16ee-
16cc
16a
16f
16e-
16c
=36
16d
16e-
16f
16g
16a
16b-
16cc
16dd
=37
16ee-
16ff
16gg
16aa
16bb-
16ccc
16ddd
16eee-
=38
16fff
16ddd
16ccc
16bb-
16aa
16gg
16ff
16ee-
=39
8dd
16d
16dd
16e-
16cc
16f
16a
=40
4b-
8ff
8ff
=41
4ff
8dd
16cc
16b-
=42
8a
8r
8ee-
8ee-
=43
4ee-
8ee-
16dd
16cc
=44
8dd
8b-
8ff
8ff
=45
4ff
8ee-
8dd
=46
8ee-
8cc
8ee-
8ee-
=47
4ee-
8dd
8cc
=48
8dd
8b-
8dd
8dd
=49
8cc
8cc
8b-
16a
16b-
=50
8a
8r
8ddd
8ddd
=51
8ccc
8ccc
8bb-
16aa
16bb-
=52
4aa
8dd
8dd
=53
4bb-
16aa
16gg
16ff#
16gg
=54
16ff#
16aa
16ff#
16dd
16bb-
16aa
16bb-
16gg
=55
16ff#
16aa
16ff#
16dd
16bb-
16aa
16bb-
16gg
=56
8ff#
8dd
8dd
8dd
=57
4dd
16ff#
16gg
16bb-
16gg
=58
8ff#
8aa
8cc
8cc
=59
4cc
8ee-
16dd
16cc
=60
8b-
8g
8ee-
8ee-
=61
8ee-
8r
8cc#
8cc#
=62
8cc#
8r
8cc
8cc
=63
4.cc
8b
=64
8dd
8cc
8ee-
8dd
=65
4cc
8b
8b
=66
4.b
8dd
=67
8cc
8a
8f#
16e
16d
=68
8g
8g
8g
16f#
16g
=69
8a
8r
8cc
8cc
=70
4.cc
8dd
=71
8b
16a
16g
8gg
8gg
=72
8ee
16dd#
16ee
8cc#
16b
16cc#
=73
4dd
8b
8b
=74
4.b
8dd
=75
8cc#
8a#
8a#
16g#
16f#
=76
8b
8b
8b
16a#
16b
=77
4cc#
8cc#
8cc#
=78
4.cc#
8ee
=79
8dd
16cc#
16b
8dd
8dd
=80
4.ee
8gg
=81
8ff#
16ee
16dd
8ff#
8ff#
=82
8ff#
16ee#
16ff#
8gg#
8ee#
=83
4ff#
8ff#
8ff#
=84
8ff#
8r
8f#
8f#
=85
8f#
8r
8ee
8ee
=86
8ee
8r
16f#
16e#
16f#
16e#
=87
8f#
8r
8dd
8dd
=88
8dd
4.r
=89
4r
8cc#
8cc#
=90
8cc#
4.r
=91
4r
8cc
8cc
=92
8cc
4.r
=93
4r
8b
8b
=94
4.b
8dd
=95
8cc
8a
8f#
16e
16d
=96
8g
8g
8g
16f#
16g
=97
8a
8r
8cc
8cc
=98
4.cc
8dd
=99
8b
16a
16g
8gg
8gg
=100
8ee
16dd#
16ee
8cc#
16b
16cc#
=101
8dd
8r
8bb
8bb
=102
4.bb
8ddd
=103
8ccc
8aa
8ff#
16ee
16dd
=104
8gg
8gg
8gg
16ff#
16gg
=105
8aa
8r
8ccc
8ccc
=106
4.ccc
8ddd
=107
8bb
16aa
16gg
8ggg
8ggg
=108
8eee
16ddd#
16eee
8ccc#
16bb
16ccc#
=109
8ddd
8r
8dd
8dd
=110
4.dd
8ff#
=111
8gg
8bb
8dd
16cc
16b
=112
8cc
8cc
8b
16a
16g
=113
8a
8a
4r
=114
8gg
8gg
8aa
16gg
16aa
=115
8ff#
8ff#
8gg
16ff#
16gg
=116
8ee
8ee
8dd
16cc#
16dd
=117
4cc#
8cc
8cc
=118
8cc
4.r
=119
4r
8e-
8e-
=120
8e-
4.r
=121
4r
8ccc
8ccc
=122
8ccc
4.r
=123
4r
8bb
8bb
=124
4.bb
8ddd
=125
8ccc
8aa
8ff#
16ee
16dd
=126
8gg
8gg
8gg
16ff#
16gg
=127
8aa
8r
8ccc
8ccc
=128
4.ccc
8ddd
=129
8bb
16aa
16gg
8eee
8eee
=130
8ddd
16ccc
16bb
8aa
16gg
16ff#
=131
8gg
8r
8B
8B
=132
4.B
8d
=133
8c
8A
8A
16G
16A
=134
16B
16c
16d
16e
16f#
16g
16f#
16e
=135
8d
8r
8c
8c
=136
4.c
8d
=137
8B
16A
16G
8e
8e
=138
2e[
=139
8e]
8f
8f
8f
=140
2f[
=141
8f]
8d#
8d#
8d#
=142
8e
16d#
16e
8f#
16e
16f#
=143
8g
16f#
16g
8a
16g
16a
=144
8b
16a
16b
8cc
16b
16cc
=145
4.dd
8dd
=146
16cc#
16dd
16cc#
16dd
16cc#
16dd
16cc#
16dd
=147
16cc#
16dd
16ee
16dd
16gg
16ff#
16aa
16gg
=148
2bb
=149
2bb[
=150
4bb]
8aa
8aa
=151
8aa
4.r
=152
4r
8aa
8aa
=153
8aa
4.r
=154
4r
8ccc
8ccc
=155
8ccc
4.r
=156
4r
8b
8b
=157
4.b
8dd
=158
8cc
8a
8f#
16e
16d
=159
8g
8g
8g
16f#
16g
=160
8a
8r
8cc
8cc
=161
4.cc
8dd
=162
8b
16a
16g
8ee
8ee
=163
8dd
16cc
16b
8a
16g
16f#
=164
16g
16b
16dd
16gg
16ff#
16dd
16cc
16ee
=165
16dd
16b
16a
16cc
16b
16g
16f#
16a
=166
16g
16b
16dd
16gg
16ff#
16dd
16cc
16ee
=167
16dd
16b
16a
16cc
16b
16g
16f#
16a
=168
16g
16b
16dd
16gg
16b
16dd
16gg
16bb
=169
16dd
16gg
16bb
16ddd
16ccc
16bb
16aa
16gg
=170
16ff#
16gg
16aa
16gg
16ff#
16ee
16dd
16cc
=171
16b
16cc
16dd
16cc
16b
16a
16g
16f#
=172
16e
16f#
16g
16f#
16g
16f#
16g
16f#
=173
16g
16f#
16g
16f#
16g
16f#
16e
16d
=174
2c
=175
2c#
=176
4d
4r
=177
16g
16a
16b
16cc
16dd
16ee
16ff#
16gg
=178
16ff#
16gg
16aa
16bb
8ccc
16bb
16aa
=179
8bb
16ggg
16fff#
16eee
16ddd
16ccc
16bb
=180
8aa
16ccc
16bb
16aa
16gg
16ff#
16ee
=181
16dd
16ee
16ff#
16gg
16aa
16ccc
16aa
16ff#
=182
8gg
16ff#
16gg
16aa
16ccc
16aa
16ff#
=183
8gg
16ff#
16gg
16aa
16ccc
16aa
16ff#
=184
8gg
16ff#
16gg
8ee
16dd
16ee
=185
8dd
16cc
16b
8a
16g
16f#
=186
8g
8r
8gg
8gg
=187
8gg
8r
16G
16B
16d
16B
=188
8G
8r
8bb
8bb
=189
8bb
8r
16G
16B
16d
16B
=190
8G
8r
8ggg
8ggg
=191
8ggg
4.r
=192
4r
8ggg
8ggg
=193
8ggg
4.r
==
*-
